!!!SOCIAL_FUNCTION:	rudimentary (?)
!!!PDT:	1922
!!!OTL: Rudimentary Song D
!!!REG: Southwest
!!!LANG: Non-Tone
!!!LING_GROUP: Uto-Aztecan
**kern
*staff1
=1-
*clefG2
*k[]
*M2/4
2a/
=2||
*M3/4
[2e/
8e/L]
8d/J
=3||
*M2/4
4e/
8d/L
8c/J
=4
4d/
4c/
=5||
*M3/4
[2a/
8a/L]
8e/J
=6
4a/
4.e/
8d/
=7
2e/
8d/L
8c/J
=8||
*M2/4
4d/
[4c/
=9
4c/]
4c/
=10||
*M3/4
2e/
8.e/L
16d/Jk
=11||
*M2/4
4.e/
16d/LL
16c/JJ
=12||
*M3/4
8.d/L
16c/Jk
4d/
4c/
=13||
*M2/4
2c/
=14
2c/
==
*-
